X:57
T:57 Captain Lanoe's Quick March
C:Alymore MS
I:abc2nwc
M:6/8
L:1/8
K:G
G2B d2d|gfe d3|cdc BcB|AGA B2G|G2B d2d|gfe d3|cdc BcB|AGA G3:|
B3B3|BAB c3|B2c d2c|B2A B2G|B3B3|BAB c3|B2g dBG|A3G3:|


